X:850
T:Jackson's Hi Ho
T:Jackson's Heigh Ho
R:reel
D:Brian McNamara: A Piper's Dream
Z:id:hn-reel-850
M:C|
L:1/8
K:Dmix
~A2FA AD~D2 | ~A2FD EFGB | ~A2FD ADFD |1 EccG EFGB :|2 EccG EFGE ||
FDEG FDDE | FDDF ~A3G | FDEG FDDF | EccG EFGE |
FDEG FDDE | FADF ~A3G | F2EG FDDF | EccG EFGE ||
|: df~f2 df~f2 | dedB ADFA | Be~e2 efe^c |1 dedB ADFA :|2 d2dF EFGB ||

